Catalina-dark/actions/22/view-calendar-special-occasion.svg

<svg xmlns="http://www.w3.org/2000/svg" viewBox="0 0 22 22">
  <defs id="defs3051">
    <style type="text/css" id="current-color-scheme">
      .ColorScheme-Text {
        color:#f2f2f2
      }
      </style>
  </defs>
 <path 
     style="fill:currentColor;fill-opacity:1;stroke:none"      
	 class="ColorScheme-Text"
        d="M 4 3 C 3.4459836 3 3 3.4459836 3 4 L 3 18 C 3 18.554016 3.4459836 19 4 19 L 18 19 C 18.554016 19 19 18.554016 19 18 L 19 4 C 19 3.4459836 18.554016 3 18 3 L 4 3 z M 8.1992188 9.1328125 L 13.800781 9.1328125 L 13.800781 11.933594 L 8.1992188 11.933594 L 8.1992188 9.1328125 z M 5.4003906 10.066406 L 7.265625 10.066406 L 7.265625 11.466797 L 7.265625 12.867188 L 5.4003906 12.867188 L 7.265625 11.466797 L 5.4003906 10.066406 z M 14.734375 10.066406 L 16.599609 10.066406 L 14.734375 11.466797 L 16.599609 12.867188 L 14.734375 12.867188 L 14.734375 11.466797 L 14.734375 10.066406 z "
     />
</svg>

<svg viewBox="0 0 22 22" xmlns="http://www.w3.org/2000/svg">
<defs>
<style id="current-color-scheme" type="text/css">.ColorScheme-Text {
        color:#f2f2f2
      }</style>
</defs>
<path class="ColorScheme-Text" d="m4 3c-0.55402 0-1 0.44598-1 1v14c0 0.55402 0.44598 1 1 1h14c0.55402 0 1-0.44598 1-1v-14c0-0.55402-0.44598-1-1-1h-14zm4.1992 6.1328h5.6016v2.8008h-5.6016v-2.8008zm-2.7988 0.93359h1.8652v2.8008h-1.8652l1.8652-1.4004-1.8652-1.4004zm9.334 0h1.8652l-1.8652 1.4004 1.8652 1.4004h-1.8652v-2.8008z" fill="currentColor"/>
</svg>
